X:1
T:GB/7e/9 John Reilly
T:GB/7e/9 John Reilly
T:Stevenson
C:Stevenson
L:1/8
M:4/4
K:G
V:1 treble 
V:1
 d2 | cd A B/A/ | GGFG | A"^(a)" B/A/ GG | G3 G | BGBc | dgfg | edce | d3 G | BGBc | dgfg | edce | %12
 d2 B>c | d e/d/ c d/c/ | BGFG | ABGG | G2 || d2 | cd A B/A/ | GGFG | A"^(a) var."BGG | G3 G | %22
 BGBc | dgfg | edce | d3 G | BGBc | dgfg | edce | d2 B>c | d e/d/ c d/c/ | BGFG | ABGG | G2 |] %34

